X:3166
T:Julia Clifford's Hornpipe
O:england
M:4/4
L:1/8
S:Michael Kilbane's box lessons, 1990
R:Hornpipe
K:D
AG|:FA fe dcBA|GB ef gfed|cB Aa ge Bc|d2 (3cec (3BcB AG|
FA fe dcBA|GB ef gfed|cB Aa ge Bc|1 d2 f2 d2 AG:|2 d2 f2 d2 (3ABc:|
|:d2 D2 DFAc|B2 G2 EFGd|c2 (3BcB AGFE|DEFG AB (3cBA|
d2 D2 DFAc|B2 G2 EFGd|c2 (3BcB AB (3cBA|1 d2 f2 d2 (3ABc:|2 d2 f2 d2 ag:
|
|:(3faf da (3faf da|fdad bdad|(3cBA eA fAeA|(3Bcd ef bage|
(3faf da (3faf da|fdad bdad|(3Bcd ef bage|1 d2 f2 d2 ag:|2 d2 f2 d2 AG:|


